build/img/diagnostic.svg

<svg width="88" height="88" viewBox="0 0 88 88" fill="none" xmlns="http://www.w3.org/2000/svg">
<path d="M36.9475 53.3586L14.637 81.1247L10.9556 77.1328L32.4677 49.4553M77.3991 31.1368C77.3991 45.5521 65.6007 57.2174 51.008 57.2174C36.4152 57.2174 24.6169 45.5521 24.6169 31.1368C24.6169 16.7215 36.4152 5.05615 51.008 5.05615C65.6007 5.05615 77.3991 16.7215 77.3991 31.1368Z" stroke="#1D1D1B" stroke-width="2" stroke-miterlimit="10"/>
<path d="M69.8143 31.8911C69.8143 41.7379 61.7417 49.7218 51.7618 49.7218" stroke="#1D1D1B" stroke-width="2" stroke-miterlimit="10"/>
</svg>

<svg width="88" height="88" viewBox="0 0 88 88" fill="none" xmlns="http://www.w3.org/2000/svg"><path d="M36.947 53.359l-22.31 27.766-3.681-3.992 21.512-27.678m44.931-18.318c0 14.415-11.798 26.08-26.391 26.08-14.593 0-26.391-11.665-26.391-26.08 0-14.416 11.798-26.08 26.391-26.08 14.593 0 26.391 11.664 26.391 26.08zm-7.585.754c0 9.847-8.072 17.83-18.052 17.83" stroke="#1D1D1B" stroke-width="2" stroke-miterlimit="10"/></svg>
